X:18306
T:Vincent Campbell's
M:3/4
L:1/8
R:Mazurka
D:Vincent Campbell - The Brass Fiddle
K:G
DG|B2 BA GB|d2 dB AB|c2 ce dc|Bd g2 DG|
B2 BA GB|d2 dB AB|c2 cA FA|1 G4:|2 G3 ggf||
|:e2 ce ce|d2 dB AB|c2 ce dc|B3 ggf|
e2 ce ce|d2 dB AB|c2 cA FA|1 G3 ggf:|2 G4||
